assets/ic-home.svg

<svg width="197" height="210" viewBox="0 0 197 210" fill="none" xmlns="http://www.w3.org/2000/svg">
<path fill-rule="evenodd" clip-rule="evenodd" d="M64.09 27.1746C73.8355 17.7325 82.0734 9.76491 86.3193 5.48573C94.8138 -3.06394 103.668 0.811212 105.433 4.25285C110.631 6.41436 119.329 19.5705 125.504 23.4147C123.861 6.79383 130.899 9.38809 145.551 9.00863C162.502 8.56831 161.374 10.7654 161.337 26.7645C161.296 44.4976 160.339 50.5139 161.812 54.8048C165.611 65.8709 186.084 79.5108 194.126 89.344C196.019 91.6605 196.304 94.5495 194.411 102.168L177.252 102.755C177.537 109.75 177.679 145.134 177.25 170.264C177.318 181.977 177.059 191.925 176.111 195.501C174.573 202.229 171.117 205.277 164.59 207.343C153.066 210.991 135.488 208.983 123.839 209.053C102.622 209.183 80.8499 209.815 59.6985 209.372C52.7442 209.086 37.5112 210.315 32.2584 208.962C25.6639 207.263 19.9519 201.641 19.1166 194.747L18.2594 102.92C14.2463 102.818 7.77691 103.66 4.29143 102.05C1.10227 100.578 -0.976855 96.2012 1.24626 91.5909C4.35152 85.1525 39.1587 51.3325 64.09 27.1746ZM101.208 84.1653C124.067 84.1653 142.598 102.697 142.598 125.555C142.598 148.414 124.067 166.945 101.208 166.945C78.3498 166.945 59.8184 148.414 59.8184 125.555C59.8184 102.697 78.3498 84.1653 101.208 84.1653ZM101.208 73.2753C130.081 73.2753 153.488 96.6823 153.488 125.555C153.488 154.428 130.081 177.835 101.208 177.835C72.3354 177.835 48.9288 154.428 48.9288 125.555C48.9288 96.6823 72.3354 73.2753 101.208 73.2753ZM47.2117 56.6031C38.7335 64.9222 30.2617 73.2905 22.0193 81.8447C19.0747 84.9004 16.1353 87.9936 13.3245 91.1744C12.6895 91.8933 11.8187 92.8476 11.0462 93.7728C13.6715 93.791 17.019 93.5699 18.4945 93.6073C23.5111 93.7343 27.5283 97.8147 27.5756 102.833L28.426 194.012C28.9891 196.887 31.8578 199.239 34.5813 199.94C36.9738 200.537 42.6601 200.301 45.2305 200.252C50.1295 200.156 55.1964 199.863 59.9873 200.061C81.1855 200.504 102.49 199.866 123.783 199.737C134.555 199.672 151.71 201.648 161.778 198.462C165.066 197.42 166.257 196.801 167.029 193.426C167.055 193.316 167.077 193.223 167.106 193.115C167.608 191.179 167.674 187.542 167.754 185.514C167.954 180.46 167.963 175.375 167.934 170.318C167.934 170.244 167.934 170.179 167.935 170.105C168.166 156.648 168.221 143.18 168.203 129.721C168.191 120.94 168.301 111.902 167.943 103.135C167.839 100.561 168.67 98.3083 170.422 96.4193C172.174 94.5314 174.358 93.5336 176.933 93.4448L185.102 93.1647C180.69 88.3919 174.716 83.6331 170.097 79.4178C163.795 73.6665 155.817 66.0368 153 57.8299C151.661 53.9287 151.633 49.7693 151.692 45.6931C151.782 39.37 152.007 33.0748 152.021 26.7429C152.025 25.1019 152.203 21.0321 152.053 18.3289C149.936 18.1857 147.04 18.2893 145.792 18.3214C143.839 18.3717 137.722 18.1611 134.586 18.4408C134.538 19.846 134.692 21.6614 134.775 22.4978C135.133 26.1167 133.511 29.4067 130.423 31.3256C127.335 33.2456 123.667 33.2445 120.581 31.3233C116.205 28.5998 112.18 23.9351 108.756 20.0853C107.25 18.3917 103.52 13.9523 101.638 12.7609C100.052 12.0602 98.7989 11.042 97.8438 9.67231C96.2624 9.17833 93.7956 11.1777 92.93 12.0496C77.979 27.1095 62.3741 41.725 47.2117 56.6031ZM89.31 133.269C96.1279 137.123 98.4614 145.993 105.771 137.03L118.362 122.488C119.716 121.088 119.412 121.711 120.663 120.352L126.469 113.479C133.281 106.713 129.241 102.718 125.714 103.316C123.15 103.752 110.466 118.669 107.812 121.914L100.051 131.161C97.9965 128.797 94.2026 124.739 90.2148 123.775C87.7971 123.686 69.3254 136.825 73.3226 142.054C77.9843 144.954 80.0944 142.341 82.5137 140.061C85.0395 137.678 87.1217 135.79 89.31 133.269Z" fill="black"/>
<path fill-rule="evenodd" clip-rule="evenodd" d="M64.09 27.1746C73.8355 17.7325 82.0734 9.76491 86.3193 5.48573C94.8138 -3.06394 103.668 0.811212 105.433 4.25285C110.631 6.41436 119.329 19.5705 125.504 23.4147C123.861 6.79383 130.899 9.38809 145.551 9.00863C162.502 8.56831 161.374 10.7654 161.337 26.7645C161.296 44.4976 160.339 50.5139 161.812 54.8048C165.611 65.8709 186.084 79.5108 194.126 89.344C196.019 91.6605 196.304 94.5495 194.411 102.168L177.252 102.755C177.537 109.75 177.679 145.134 177.25 170.264C177.318 181.977 177.059 191.925 176.111 195.501C174.573 202.229 171.117 205.277 164.59 207.343C153.066 210.991 135.488 208.983 123.839 209.053C102.622 209.183 80.8499 209.815 59.6985 209.372C52.7442 209.086 37.5112 210.315 32.2584 208.962C25.6639 207.263 19.9519 201.641 19.1166 194.747L18.2594 102.92C14.2463 102.818 7.77691 103.66 4.29143 102.05C1.10227 100.578 -0.976855 96.2012 1.24626 91.5909C4.35152 85.1525 39.1587 51.3325 64.09 27.1746ZM101.208 84.1653C124.067 84.1653 142.598 102.697 142.598 125.555C142.598 148.414 124.067 166.945 101.208 166.945C78.3498 166.945 59.8184 148.414 59.8184 125.555C59.8184 102.697 78.3498 84.1653 101.208 84.1653ZM101.208 73.2753C130.081 73.2753 153.488 96.6823 153.488 125.555C153.488 154.428 130.081 177.835 101.208 177.835C72.3354 177.835 48.9288 154.428 48.9288 125.555C48.9288 96.6823 72.3354 73.2753 101.208 73.2753ZM47.2117 56.6031C38.7335 64.9222 30.2617 73.2905 22.0193 81.8447C19.0747 84.9004 16.1353 87.9936 13.3245 91.1744C12.6895 91.8933 11.8187 92.8476 11.0462 93.7728C13.6715 93.791 17.019 93.5699 18.4945 93.6073C23.5111 93.7343 27.5283 97.8147 27.5756 102.833L28.426 194.012C28.9891 196.887 31.8578 199.239 34.5813 199.94C36.9738 200.537 42.6601 200.301 45.2305 200.252C50.1295 200.156 55.1964 199.863 59.9873 200.061C81.1855 200.504 102.49 199.866 123.783 199.737C134.555 199.672 151.71 201.648 161.778 198.462C165.066 197.42 166.257 196.801 167.029 193.426C167.055 193.316 167.077 193.223 167.106 193.115C167.608 191.179 167.674 187.542 167.754 185.514C167.954 180.46 167.963 175.375 167.934 170.318C167.934 170.244 167.934 170.179 167.935 170.105C168.166 156.648 168.221 143.18 168.203 129.721C168.191 120.94 168.301 111.902 167.943 103.135C167.839 100.561 168.67 98.3083 170.422 96.4193C172.174 94.5314 174.358 93.5336 176.933 93.4448L185.102 93.1647C180.69 88.3919 174.716 83.6331 170.097 79.4178C163.795 73.6665 155.817 66.0368 153 57.8299C151.661 53.9287 151.633 49.7693 151.692 45.6931C151.782 39.37 152.007 33.0748 152.021 26.7429C152.025 25.1019 152.203 21.0321 152.053 18.3289C149.936 18.1857 147.04 18.2893 145.792 18.3214C143.839 18.3717 137.722 18.1611 134.586 18.4408C134.538 19.846 134.692 21.6614 134.775 22.4978C135.133 26.1167 133.511 29.4067 130.423 31.3256C127.335 33.2456 123.667 33.2445 120.581 31.3233C116.205 28.5998 112.18 23.9351 108.756 20.0853C107.25 18.3917 103.52 13.9523 101.638 12.7609C100.052 12.0602 98.7989 11.042 97.8438 9.67231C96.2624 9.17833 93.7956 11.1777 92.93 12.0496C77.979 27.1095 62.3741 41.725 47.2117 56.6031ZM89.31 133.269C96.1279 137.123 98.4614 145.993 105.771 137.03L118.362 122.488C119.716 121.088 119.412 121.711 120.663 120.352L126.469 113.479C133.281 106.713 129.241 102.718 125.714 103.316C123.15 103.752 110.466 118.669 107.812 121.914L100.051 131.161C97.9965 128.797 94.2026 124.739 90.2148 123.775C87.7971 123.686 69.3254 136.825 73.3226 142.054C77.9843 144.954 80.0944 142.341 82.5137 140.061C85.0395 137.678 87.1217 135.79 89.31 133.269Z" stroke="black" stroke-width="0.639874" stroke-miterlimit="22.9256"/>
</svg>

<svg xmlns="http://www.w3.org/2000/svg" width="197" height="210" fill="none" viewBox="0 0 197 210"><path fill="#000" fill-rule="evenodd" d="M64.09 27.175c9.745-9.442 17.983-17.41 22.23-21.69 8.494-8.549 17.348-4.674 19.113-1.232 5.198 2.161 13.896 15.317 20.071 19.162-1.643-16.621 5.395-14.027 20.047-14.406 16.951-.44 15.823 1.756 15.786 17.756-.041 17.733-.998 23.749.475 28.04 3.799 11.066 24.272 24.706 32.314 34.539 1.893 2.317 2.178 5.206.285 12.824l-17.159.587c.285 6.995.427 42.379-.002 67.509.068 11.713-.191 21.661-1.139 25.237-1.538 6.728-4.994 9.776-11.521 11.842-11.524 3.648-29.102 1.64-40.751 1.71-21.217.13-42.99.762-64.14.319-6.955-.286-22.188.943-27.44-.41-6.595-1.699-12.307-7.321-13.142-14.215l-.858-91.827c-4.013-.102-10.482.74-13.968-.87-3.189-1.472-5.268-5.849-3.045-10.46C4.352 85.154 39.16 51.334 64.09 27.176m37.118 56.99c22.859 0 41.39 18.532 41.39 41.39 0 22.859-18.531 41.39-41.39 41.39-22.858 0-41.39-18.531-41.39-41.39 0-22.858 18.532-41.39 41.39-41.39m0-10.89c28.873 0 52.28 23.407 52.28 52.28s-23.407 52.28-52.28 52.28-52.28-23.407-52.28-52.28 23.407-52.28 52.28-52.28M47.212 56.603c-8.479 8.32-16.95 16.687-25.193 25.242-2.944 3.055-5.884 6.149-8.694 9.33-.635.718-1.506 1.673-2.279 2.598 2.626.018 5.973-.203 7.448-.166a9.32 9.32 0 0 1 9.082 9.226l.85 91.179c.563 2.875 3.432 5.227 6.155 5.928 2.393.597 8.08.361 10.65.312 4.898-.096 9.965-.389 14.756-.191 21.199.443 42.503-.195 63.796-.324 10.772-.065 27.927 1.911 37.995-1.275 3.288-1.042 4.479-1.661 5.251-5.036.026-.11.048-.203.077-.311.502-1.936.568-5.573.648-7.601.2-5.054.209-10.139.18-15.196l.001-.213c.231-13.457.286-26.925.268-40.384-.012-8.781.098-17.819-.26-26.586-.104-2.574.727-4.827 2.479-6.716 1.752-1.888 3.936-2.885 6.511-2.974l8.169-.28c-4.412-4.773-10.386-9.532-15.005-13.747-6.302-5.752-14.28-13.381-17.097-21.588-1.339-3.901-1.367-8.06-1.308-12.137.09-6.323.315-12.618.329-18.95.004-1.641.182-5.71.032-8.414-2.117-.143-5.013-.04-6.261-.008-1.953.05-8.07-.16-11.206.12-.048 1.405.106 3.22.189 4.057.358 3.619-1.264 6.909-4.352 8.828-3.088 1.92-6.756 1.919-9.842-.003-4.376-2.723-8.401-7.388-11.825-11.238-1.506-1.693-5.236-6.133-7.118-7.324-1.586-.7-2.84-1.719-3.794-3.089-1.582-.494-4.048 1.506-4.914 2.378-14.951 15.06-30.556 29.675-45.718 44.553M89.31 133.27c6.818 3.854 9.151 12.724 16.461 3.761l12.591-14.542c1.354-1.4 1.05-.777 2.301-2.136l5.806-6.873c6.812-6.766 2.772-10.761-.755-10.163-2.564.436-15.248 15.353-17.902 18.598l-7.761 9.247c-2.055-2.364-5.848-6.422-9.836-7.386-2.418-.089-20.89 13.05-16.892 18.279 4.661 2.9 6.771.287 9.19-1.993 2.526-2.383 4.609-4.271 6.797-6.792" clip-rule="evenodd"/><path stroke="#000" stroke-miterlimit="22.926" stroke-width=".64" d="M64.09 27.175c9.745-9.442 17.983-17.41 22.23-21.69 8.494-8.549 17.348-4.674 19.113-1.232 5.198 2.161 13.896 15.317 20.071 19.162-1.643-16.621 5.395-14.027 20.047-14.406 16.951-.44 15.823 1.756 15.786 17.756-.041 17.733-.998 23.749.475 28.04 3.799 11.066 24.272 24.706 32.314 34.539 1.893 2.317 2.178 5.206.285 12.824l-17.159.587c.285 6.995.427 42.379-.002 67.509.068 11.713-.191 21.661-1.139 25.237-1.538 6.728-4.994 9.776-11.521 11.842-11.524 3.648-29.102 1.64-40.751 1.71-21.217.13-42.99.762-64.14.319-6.955-.286-22.188.943-27.44-.41-6.595-1.699-12.307-7.321-13.142-14.215l-.858-91.827c-4.013-.102-10.482.74-13.968-.87-3.189-1.472-5.268-5.849-3.045-10.46C4.352 85.154 39.16 51.334 64.09 27.176Zm37.118 56.99c22.859 0 41.39 18.532 41.39 41.39 0 22.859-18.531 41.39-41.39 41.39-22.858 0-41.39-18.531-41.39-41.39 0-22.858 18.532-41.39 41.39-41.39Zm0-10.89c28.873 0 52.28 23.407 52.28 52.28s-23.407 52.28-52.28 52.28-52.28-23.407-52.28-52.28 23.407-52.28 52.28-52.28ZM47.212 56.603c-8.479 8.32-16.95 16.687-25.193 25.242-2.944 3.055-5.884 6.149-8.694 9.33-.635.718-1.506 1.673-2.279 2.598 2.626.018 5.973-.203 7.448-.166a9.32 9.32 0 0 1 9.082 9.226l.85 91.179c.563 2.875 3.432 5.227 6.155 5.928 2.393.597 8.08.361 10.65.312 4.898-.096 9.965-.389 14.756-.191 21.199.443 42.503-.195 63.796-.324 10.772-.065 27.927 1.911 37.995-1.275 3.288-1.042 4.479-1.661 5.251-5.036.026-.11.048-.203.077-.311.502-1.936.568-5.573.648-7.601.2-5.054.209-10.139.18-15.196l.001-.213c.231-13.457.286-26.925.268-40.384-.012-8.781.098-17.819-.26-26.586-.104-2.574.727-4.827 2.479-6.716 1.752-1.888 3.936-2.885 6.511-2.974l8.169-.28c-4.412-4.773-10.386-9.532-15.005-13.747-6.302-5.752-14.28-13.381-17.097-21.588-1.339-3.901-1.367-8.06-1.308-12.137.09-6.323.315-12.618.329-18.95.004-1.641.182-5.71.032-8.414-2.117-.143-5.013-.04-6.261-.008-1.953.05-8.07-.16-11.206.12-.048 1.405.106 3.22.189 4.057.358 3.619-1.264 6.909-4.352 8.828-3.088 1.92-6.756 1.919-9.842-.003-4.376-2.723-8.401-7.388-11.825-11.238-1.506-1.693-5.236-6.133-7.118-7.324-1.586-.7-2.84-1.719-3.794-3.089-1.582-.494-4.048 1.506-4.914 2.378-14.951 15.06-30.556 29.675-45.718 44.553ZM89.31 133.27c6.818 3.854 9.151 12.724 16.461 3.761l12.591-14.542c1.354-1.4 1.05-.777 2.301-2.136l5.806-6.873c6.812-6.766 2.772-10.761-.755-10.163-2.564.436-15.248 15.353-17.902 18.598l-7.761 9.247c-2.055-2.364-5.848-6.422-9.836-7.386-2.418-.089-20.89 13.05-16.892 18.279 4.661 2.9 6.771.287 9.19-1.993 2.526-2.383 4.609-4.271 6.797-6.792Z" clip-rule="evenodd"/></svg>
